asset/images/icons/icon-24/stillage.svg

<svg xmlns="http://www.w3.org/2000/svg" viewBox="0 0 24 24">
<path fill="#8a8cce" d="M3.75,5.25V3H2.25V21h1.5V18.75h7.5V21h1.5V18.75h7.5V21h1.5V3h-1.5V5.25h-7.5V3h-1.5V5.25H3.75Zm7.5,10.5v1.5H3.75v-1.5h7.5Zm0-3v1.5H3.75v-1.5h7.5Zm0-3v1.5H3.75V9.75h7.5Zm0-3v1.5H3.75V6.75h7.5Zm9,9v1.5h-7.5v-1.5h7.5Zm0-3v1.5h-7.5v-1.5h7.5Zm0-3v1.5h-7.5V9.75h7.5Zm0-3v1.5h-7.5V6.75h7.5Z"/>
</svg>

<svg width="24" height="24" viewBox="0 0 24 24" fill="none" xmlns="http://www.w3.org/2000/svg">
<path fill-rule="evenodd" clip-rule="evenodd" d="M3.75 5.25V3H2.25V21H3.75V18.75H11.25V21H12.75V18.75H20.25V21H21.75V3H20.25V5.25H12.75V3H11.25V5.25H3.75ZM20.25 6.75H12.75V8.25H20.25V6.75ZM20.25 9.75H12.75V11.25H20.25V9.75ZM20.25 12.75H12.75V14.25H20.25V12.75ZM20.25 15.75H12.75V17.25H20.25V15.75ZM11.25 15.75V17.25H3.75V15.75H11.25ZM11.25 12.75V14.25H3.75V12.75H11.25ZM11.25 9.75V11.25H3.75V9.75H11.25ZM11.25 6.75V8.25H3.75V6.75H11.25Z" fill="#8A8CCE"/>
</svg>
